icons/tokens/0x7Ff566E1d69DEfF32a7b244aE7276b9f90e9D0f6/logo.svg

<svg width="32" height="32" viewBox="0 0 32 32" fill="none" xmlns="http://www.w3.org/2000/svg">
<path fill-rule="evenodd" clip-rule="evenodd" d="M32 15.9999C32 13.9059 31.5834 11.8118 30.7821 9.87706C29.9805 7.94234 28.7942 6.16698 27.3136 4.68634C25.833 3.20538 24.0576 2.01946 22.1229 1.21786C20.1882 0.416575 18.0941 -6.48499e-05 16 -6.48499e-05C13.9059 -6.48499e-05 11.8115 0.416575 9.8768 1.21786C7.94208 2.01946 6.16704 3.20538 4.68608 4.68634C3.20544 6.16698 2.0192 7.94234 1.21792 9.87706C0.41632 11.8118 0 13.9059 0 15.9999C0 18.094 0.41632 20.1881 1.21792 22.1228C2.0192 24.0575 3.20544 25.8329 4.68608 27.3139C6.16704 28.7945 7.94208 29.9807 9.8768 30.782C11.8115 31.5833 13.9059 31.9999 16 31.9999C18.0941 31.9999 20.1882 31.5833 22.1229 30.782C24.0576 29.9807 25.833 28.7945 27.3136 27.3139C28.7942 25.8329 29.9805 24.0575 30.7821 22.1228C31.5834 20.1881 32 18.094 32 15.9999Z" fill="white"/>
<path fill-rule="evenodd" clip-rule="evenodd" d="M11.8547 3.38361C13.3453 2.89369 14.9382 2.66969 16.5162 2.73017C18.0944 2.79065 19.6579 3.13593 21.113 3.74393C22.5683 4.35193 23.9152 5.22297 25.0675 6.29753C26.5917 7.71929 27.775 9.49753 28.4848 11.4867C29.1949 13.4761 29.4314 15.6764 29.1574 17.7711C28.8838 19.8659 28.0998 21.8553 26.9139 23.566C25.728 25.2767 24.1398 26.7084 22.2746 27.7004C20.4093 28.6921 18.2662 29.2438 16.1539 29.2758C14.0416 29.3078 11.9597 28.8204 10.095 27.895C8.23073 26.9695 6.58337 25.6063 5.33249 23.9036C4.08161 22.2009 3.22721 20.1587 2.88801 18.0748C2.54881 15.9907 2.72481 13.8646 3.37473 11.8812C3.86593 10.3817 4.62817 8.96409 5.6048 7.73561H4.12033V5.28185H9.93696V10.7135H7.48321V9.22937C6.68321 10.2355 6.05857 11.3967 5.65633 12.6255C5.12417 14.2511 4.98081 15.9951 5.25633 17.6969C5.59873 19.8137 6.58881 21.8649 8.06657 23.4457C9.83425 25.3363 12.2995 26.5542 14.8659 26.8207C17.432 27.0873 20.0992 26.4028 22.2173 24.9286C24.3354 23.4543 25.905 21.1903 26.5421 18.6899C27.1792 16.1894 26.8838 13.4524 25.735 11.142C24.5862 8.83161 22.5837 6.94841 20.1891 5.95897C17.7946 4.96921 15.0077 4.87385 12.6038 5.66361L11.8547 3.38361Z" fill="url(#paint0_linear)"/>
<path d="M15.7036 21.1386C15.1913 21.0996 14.7098 20.9924 14.259 20.8169C13.8082 20.6317 13.4189 20.3929 13.0911 20.1005C12.7633 19.8081 12.502 19.4718 12.3074 19.0916C12.1127 18.7115 12.0102 18.2972 12 17.8488H13.8902C13.9107 18.3264 14.0849 18.7261 14.4127 19.0478C14.7508 19.3597 15.1811 19.54 15.7036 19.5888V16.6937L14.9813 16.5914C14.1515 16.4841 13.4906 16.1868 12.9989 15.6995C12.5174 15.2121 12.2766 14.5931 12.2766 13.8426C12.2766 13.4526 12.3688 13.0871 12.5532 12.7459C12.7376 12.395 12.9886 12.088 13.3062 11.8248C13.6238 11.5519 13.9875 11.3325 14.3973 11.1668C14.8138 11.002 15.2543 10.8984 15.7036 10.8598V9.5H16.8254V10.889C17.2864 10.9475 17.7116 11.0645 18.1009 11.2399C18.4902 11.4057 18.8283 11.6201 19.1152 11.8833C19.402 12.1465 19.6274 12.4486 19.7913 12.7898C19.9655 13.131 20.0628 13.4965 20.0833 13.8864H18.1931C18.1726 13.5355 18.0343 13.2333 17.7782 12.9799C17.5323 12.7167 17.2147 12.5364 16.8254 12.4389V15.1146L17.3479 15.1877C17.7372 15.2462 18.106 15.3486 18.4544 15.4948C18.8027 15.641 19.1049 15.8311 19.361 16.065C19.6274 16.2989 19.8323 16.5816 19.9757 16.913C20.1294 17.2347 20.2062 17.6002 20.2062 18.0096C20.2062 18.4483 20.1192 18.8479 19.945 19.2086C19.7811 19.5595 19.5454 19.8714 19.2381 20.1444C18.941 20.4076 18.5824 20.6269 18.1624 20.8023C17.7526 20.968 17.3069 21.0753 16.8254 21.124V22.63H15.7036V21.1386V21.1386ZM16.8254 19.5741C17.3069 19.4962 17.6809 19.3304 17.9472 19.077C18.2136 18.8138 18.3468 18.4824 18.3468 18.0828C18.3468 17.7123 18.2187 17.4394 17.9626 17.264C17.7065 17.0787 17.4145 16.9569 17.0866 16.8984L16.8254 16.8546V19.5741V19.5741ZM15.7036 12.395C15.2733 12.4535 14.9045 12.6046 14.5971 12.8483C14.3 13.0822 14.1515 13.399 14.1515 13.7987C14.1515 14.1399 14.2488 14.3982 14.4434 14.5736C14.6483 14.7393 14.9147 14.8466 15.2425 14.8953L15.7036 14.9684V12.395V12.395Z" fill="black"/>
<circle cx="16" cy="16" r="8" fill="black"/>
<circle cx="16" cy="16" r="8" fill="url(#paint1_linear)" fill-opacity="0.75"/>
<circle cx="16" cy="16" r="6.93333" fill="white"/>
<circle cx="15.9833" cy="15.9833" r="6.31667" fill="black"/>
<path fill-rule="evenodd" clip-rule="evenodd" d="M18.7845 15.1556C18.905 14.3566 18.2912 13.9278 17.4516 13.6405L17.7239 12.5591L17.0589 12.3951L16.7934 13.4482C16.6188 13.4051 16.4393 13.3641 16.2607 13.3241L16.5272 12.2643L15.8631 12.1L15.5899 13.1815L15.499 13.1606L15.499 13.1606C15.3859 13.1347 15.2746 13.1091 15.1655 13.0827L15.1666 13.0788L14.2489 12.8522L14.0724 13.5556L14.0778 13.5568C14.1352 13.57 14.5652 13.6682 14.5548 13.6747C14.824 13.7412 14.8736 13.9181 14.8655 14.0576L14.1186 17.0215C14.086 17.1025 14.0021 17.2238 13.8138 17.1778C13.8208 17.1875 13.3548 17.0649 13.3303 17.0584L13 17.8117L13.866 18.0258C13.9587 18.0487 14.0504 18.0724 14.141 18.0959L14.141 18.0959C14.2078 18.1131 14.274 18.1303 14.3396 18.1468L14.0646 19.2409L14.7293 19.405L15.0016 18.3226C15.1832 18.3714 15.359 18.4164 15.5316 18.4584L15.2603 19.5359L15.9253 19.7L16.2006 18.6079C17.3342 18.8207 18.1877 18.735 18.5467 17.7189C18.8359 16.9012 18.5318 16.4295 17.9351 16.1217C18.37 16.0231 18.6966 15.7399 18.7845 15.1556ZM15.3489 17.564L15.3489 17.564C15.2996 17.5511 15.2555 17.5396 15.2179 17.5304L15.5829 16.0806C15.6286 16.092 15.6845 16.1044 15.7479 16.1185C16.3097 16.2433 17.4574 16.4983 17.265 17.2648C17.0761 18.0151 15.8922 17.7059 15.3489 17.564ZM15.8592 15.4446C16.3111 15.5643 17.2985 15.8256 17.4703 15.1439C17.6459 14.4458 16.6867 14.2355 16.2181 14.1327C16.1655 14.1211 16.119 14.111 16.0811 14.1016L15.7505 15.4164C15.7817 15.4241 15.8182 15.4338 15.8592 15.4446Z" fill="white"/>
<defs>
<linearGradient id="paint0_linear" x1="2.04343" y1="13.297" x2="15.2222" y2="29.5764" gradientUnits="userSpaceOnUse">
<stop stop-color="#004CFF"/>
<stop offset="0.252131" stop-color="#00E0FB"/>
<stop offset="0.505709" stop-color="#87FF70"/>
<stop offset="0.755054" stop-color="#F8F500"/>
<stop offset="1" stop-color="#FF1A00"/>
</linearGradient>
<linearGradient id="paint1_linear" x1="8" y1="8" x2="24" y2="24" gradientUnits="userSpaceOnUse">
<stop stop-color="white"/>
<stop offset="1" stop-color="white" stop-opacity="0"/>
</linearGradient>
</defs>
</svg>

<svg width="32" height="32" fill="none" xmlns="http://www.w3.org/2000/svg"><path fill-rule="evenodd" clip-rule="evenodd" d="M32 16c0-2.094-.417-4.188-1.218-6.123a16.058 16.058 0 00-3.468-5.19 16.051 16.051 0 00-5.191-3.47A16.054 16.054 0 0016 0c-2.094 0-4.188.417-6.123 1.218a16.055 16.055 0 00-5.19 3.468 16.05 16.05 0 00-3.47 5.191A16.049 16.049 0 000 16c0 2.094.416 4.188 1.218 6.123a16.056 16.056 0 003.468 5.19 16.055 16.055 0 005.19 3.469A16.056 16.056 0 0016 32c2.094 0 4.188-.417 6.123-1.218a16.051 16.051 0 005.19-3.468 16.063 16.063 0 003.47-5.191A16.054 16.054 0 0032 16z" fill="#fff"/><path fill-rule="evenodd" clip-rule="evenodd" d="M11.855 3.384a13.267 13.267 0 0113.213 2.914 13.155 13.155 0 013.417 5.189c.71 1.99.946 4.19.672 6.284a13.194 13.194 0 01-2.243 5.795 13.207 13.207 0 01-4.64 4.134 13.622 13.622 0 01-6.12 1.576 13.207 13.207 0 01-6.059-1.381 13.19 13.19 0 01-4.763-3.991 13.662 13.662 0 01-2.444-5.83 13.13 13.13 0 01.487-6.193 13.392 13.392 0 012.23-4.145H4.12V5.282h5.817v5.431H7.483V9.23a10.961 10.961 0 00-1.827 3.397 10.787 10.787 0 00-.4 5.07 11.107 11.107 0 002.81 5.75 10.952 10.952 0 006.8 3.375 11.023 11.023 0 007.351-1.892 10.999 10.999 0 004.325-6.24c.637-2.5.342-5.237-.807-7.547a10.919 10.919 0 00-5.546-5.183c-2.394-.99-5.181-1.085-7.585-.295l-.75-2.28z" fill="url(#paint0_linear)"/><path d="M15.704 21.139a5.007 5.007 0 01-1.445-.322 4.045 4.045 0 01-1.168-.716 3.45 3.45 0 01-.784-1.01A2.83 2.83 0 0112 17.85h1.89c.02.477.195.877.523 1.199.338.312.768.492 1.29.54v-2.894l-.722-.103c-.83-.107-1.49-.404-1.982-.892-.482-.487-.722-1.106-.722-1.856 0-.39.092-.756.276-1.097.185-.351.436-.658.753-.921a3.907 3.907 0 011.091-.658 4.629 4.629 0 011.307-.307V9.5h1.121v1.389a4.45 4.45 0 011.276.35c.39.167.727.381 1.014.644.287.264.512.566.676.907.174.341.272.707.292 1.096h-1.89a1.348 1.348 0 00-.415-.906 1.9 1.9 0 00-.953-.541v2.676l.523.073c.39.058.758.16 1.106.307.349.146.65.336.907.57.266.234.471.517.615.848.153.322.23.687.23 1.097 0 .438-.087.838-.261 1.199-.164.35-.4.662-.707.935a3.834 3.834 0 01-1.076.658c-.41.166-.855.273-1.337.322v1.506h-1.121v-1.491zm1.121-1.565c.482-.078.856-.244 1.122-.497.267-.263.4-.595.4-.994 0-.37-.128-.644-.384-.819a2.103 2.103 0 00-.876-.366l-.262-.043v2.72zm-1.121-7.179c-.43.059-.8.21-1.107.453-.297.234-.445.551-.445.95 0 .342.097.6.291.776.205.165.472.273.8.321l.46.073v-2.573z" fill="#000"/><circle cx="16" cy="16" r="8" fill="#000"/><circle cx="16" cy="16" r="8" fill="url(#paint1_linear)" fill-opacity=".75"/><circle cx="16" cy="16" r="6.933" fill="#fff"/><circle cx="15.983" cy="15.983" r="6.317" fill="#000"/><path fill-rule="evenodd" clip-rule="evenodd" d="M18.785 15.156c.12-.8-.494-1.228-1.333-1.516l.272-1.08-.665-.165-.266 1.053a25.396 25.396 0 00-.532-.124l.266-1.06-.664-.164-.273 1.082-.091-.021a27.99 27.99 0 01-.334-.078l.002-.004-.918-.227-.177.704h.006c.057.014.487.112.477.119.269.066.319.243.31.383l-.746 2.963c-.033.081-.117.203-.305.157.007.01-.46-.113-.484-.12l-.33.754.866.214.275.07.199.05-.275 1.095.664.164.273-1.082c.181.048.357.093.53.135l-.272 1.078.665.164.276-1.092c1.133.213 1.987.127 2.346-.89.289-.817-.015-1.288-.612-1.596.435-.099.762-.382.85-.966zm-3.436 2.408a8.962 8.962 0 00-.131-.034l.365-1.45c.046.012.101.024.165.039.562.124 1.71.38 1.517 1.146-.189.75-1.373.44-1.916.299zm.51-2.12c.452.12 1.44.382 1.611-.3.176-.698-.783-.909-1.252-1.011l-.137-.031-.33 1.314.108.029z" fill="#fff"/><defs><linearGradient id="paint0_linear" x1="2.043" y1="13.297" x2="15.222" y2="29.576" gradientUnits="userSpaceOnUse"><stop stop-color="#004CFF"/><stop offset=".252" stop-color="#00E0FB"/><stop offset=".506" stop-color="#87FF70"/><stop offset=".755" stop-color="#F8F500"/><stop offset="1" stop-color="#FF1A00"/></linearGradient><linearGradient id="paint1_linear" x1="8" y1="8" x2="24" y2="24" gradientUnits="userSpaceOnUse"><stop stop-color="#fff"/><stop offset="1" stop-color="#fff" stop-opacity="0"/></linearGradient></defs></svg>
